icons/desk.svg

<?xml version="1.0" encoding="UTF-8" standalone="no"?>
<svg width="256px" height="106px" viewBox="0 0 256 106" version="1.1" xmlns="http://www.w3.org/2000/svg" xmlns:xlink="http://www.w3.org/1999/xlink" preserveAspectRatio="xMidYMid">
    <g>
        <path d="M246.526165,38.5556177 L228.093941,34.8625611 L207.500038,58.1989963 L207.500038,0 L190.154649,6.95249926 L190.154649,79.3193308 C187.918381,68.3562363 176.976788,65.3703039 167.941149,62.9113792 C161.317588,61.1088794 155.59839,59.5518718 155.839465,55.008932 C156.077875,50.554049 160.495803,48.7915752 164.767219,49.0197227 C169.813805,49.2905647 173.912074,51.3772484 176.9648,55.2277401 L189.713787,43.8777285 C182.79854,36.1540636 171.57858,34.4382866 165.421184,34.1087398 C151.249723,33.3495821 136.574801,39.6283118 135.734369,55.3691652 C135.709062,55.8681546 135.697075,56.3511339 135.698408,56.8261081 C130.631845,43.9137519 118.086637,34.7705015 103.401061,34.7705015 C86.5937609,34.7705015 72.5914487,46.7449172 69.4002074,62.6418715 L69.4002074,0.0186788203 L52.0548189,6.96984388 L52.0548189,39.4348532 C46.9496267,36.4729365 41.0239848,34.7705015 34.6987727,34.7705015 C15.5353335,34.7705015 -4.26325641e-14,50.3299041 -4.26325641e-14,69.527661 C-4.26325641e-14,88.7240837 15.5353335,104.284821 34.6987727,104.284821 C52.2106517,104.284821 66.6844539,91.2857416 69.0499151,74.3961449 C71.4140469,91.2857416 85.8878523,104.284821 103.401061,104.284821 C116.585582,104.284821 128.050612,96.9187201 133.922978,86.0703666 L115.145793,82.3079315 C112.057105,85.1591102 107.936194,86.9055735 103.403723,86.9055735 C96.2926867,86.9055735 90.1832431,82.6174653 87.5047836,76.4814945 L103.413048,76.4814945 L137.403247,76.4801603 C137.858758,74.233373 138.098501,71.909202 138.098501,69.527661 C138.098501,68.2855239 138.031905,67.0580627 137.905374,65.8506149 C141.879777,72.7524145 150.514513,75.0925955 157.858632,77.0832171 C164.743245,78.948424 170.688866,80.5587998 170.421155,85.539356 C170.232022,89.1283455 166.212336,91.0629306 159.674017,90.7107027 C153.611189,90.3878272 148.889589,87.8275035 144.877892,82.6775041 L132.151547,95.3883964 C139.620868,103.4296 151.51344,105.220092 158.018459,105.569652 C164.976328,105.943227 186.898142,105.665714 190.154649,88.1557158 L190.154649,104.29416 L207.500038,104.29416 L207.500038,73.9064946 L234.311272,104.286155 L256,104.286155 L222.261534,66.0534125 L246.526165,38.5556177 L246.526165,38.5556177 Z M42.6022926,84.9976721 C40.2301715,86.2144597 37.5477142,86.9055735 34.7014347,86.9055735 C25.1210478,86.9055735 17.353381,79.1258722 17.353381,69.527661 C17.353381,59.9307837 25.1210478,52.1497482 34.7014347,52.1497482 C44.2818249,52.1497482 52.048159,59.9307837 52.048159,69.527661 C52.048159,73.3461322 50.8161456,76.8764165 48.7317159,79.7436056 C49.0433815,81.8116105 50.1928143,84.1117655 53.2375479,86.1464157 C54.7106335,87.1297187 48.9421571,88.7027365 42.6022926,84.9976721 L42.6022926,84.9976721 L42.6022926,84.9976721 Z M87.5047836,62.5764959 C90.1819105,56.4391909 96.2926867,52.1497482 103.403723,52.1497482 C110.516095,52.1497482 116.626871,56.4391909 119.303998,62.5764959 L87.5047836,62.5764959 L87.5047836,62.5764959 Z" fill="#239EDA"></path>
    </g>
</svg>

<svg xmlns="http://www.w3.org/2000/svg" viewBox="0 0 256 105.647">
  <path fill="#239eda" d="m246.526 38.556-18.432-3.693L207.5 58.199V0l-17.345 6.952V79.32c-2.237-10.963-13.178-13.949-22.214-16.408-6.623-1.802-12.343-3.36-12.102-7.902.239-4.455 4.657-6.217 8.928-5.99 5.047.272 9.145 2.358 12.198 6.209l12.749-11.35c-6.915-7.724-18.135-9.44-24.293-9.77-14.171-.758-28.846 5.52-29.687 21.261-.025.5-.037.982-.036 1.457-5.066-12.912-17.611-22.055-32.297-22.055-16.807 0-30.81 11.974-34 27.87V.02l-17.346 6.95v32.466a34.474 34.474 0 0 0-17.356-4.664C15.535 34.77 0 50.33 0 69.528c0 19.196 15.535 34.757 34.699 34.757 17.512 0 31.985-13 34.35-29.889 2.365 16.89 16.839 29.889 34.352 29.889 13.185 0 24.65-7.366 30.522-18.215l-18.777-3.762a17.253 17.253 0 0 1-11.742 4.598c-7.111 0-13.22-4.289-15.9-10.425h49.899a34.957 34.957 0 0 0 .502-10.63c3.975 6.901 12.61 9.242 19.954 11.232 6.884 1.865 12.83 3.476 12.562 8.456-.189 3.59-4.209 5.524-10.747 5.172-6.063-.323-10.784-2.883-14.796-8.033l-12.726 12.71c7.469 8.042 19.361 9.832 25.866 10.182 6.958.373 28.88.096 32.137-17.414v16.138H207.5V73.906l26.811 30.38H256l-33.738-38.233zM42.602 84.998a17.255 17.255 0 0 1-7.9 1.908c-9.581 0-17.349-7.78-17.349-17.378 0-9.597 7.768-17.378 17.348-17.378 9.58 0 17.347 7.78 17.347 17.378 0 3.818-1.232 7.348-3.316 10.216.311 2.068 1.46 4.368 4.506 6.402 1.473.984-4.296 2.557-10.636-1.148zm44.903-22.422c2.677-6.137 8.788-10.426 15.899-10.426 7.112 0 13.223 4.29 15.9 10.426h-31.8z"/>
</svg>
